COLOR/action 16/16/group-delete.svg

<svg height="16.001" width="16" xmlns="http://www.w3.org/2000/svg"><path d="m7.4118445.00099977c-2.7349357 0-4.1956644.22630478-4.9413542.97618733-.7456791.7498826-.9704903 2.2192847-.9704903 4.9687512v4.1101217c0 2.749467.2248112 4.218869.9704903 4.968752.7456898.749882 2.2064185.976187 4.9413542.976187h1.0727286c2.7349579 0 4.1956759-.226305 4.9413549-.976187.74569-.749883.970501-2.219285.970501-4.968752v-4.1101217c0-2.7494665-.224811-4.2188686-.970501-4.9687512-.745679-.74988255-2.206397-.97618733-4.9413549-.97618733z" fill="#1a7fd4"/><path d="m7.2747195 11.26441-.2600499.446752.7401421.426749.500096-.873501zm1.1068792 0-.373405.646791.240046.406744-.1800345.106698.873501.240036.2333783-.880169-.1867027.106687-.366737-.626787zm-1.1068792.840172-.873501.240035.1867025.106687-.3200614.540104.1733666.300058h.6467908l.2400461-.413413.1800346.106687zm2.140411.526757-.7401422.426748.4534202.806822.06668-.113355.153362-.273386.04662-.08001.233378-.406745zm-1.2535741.553439-.6401228.640123.6401228.640123v-.213363h.7468101l.166699-.286733-.3267298-.566775h-.5867793zm-1.6603187.213375.059958.106697.2000384.353391.2267102.39342h.3200614v-.853508z" fill="#fff"/><path d="m7.56892 2.6666421c-2.4222463 0-3.5204091.2801178-3.837793.5784364-.3742799.3517795-.616193 1.1374343-.616193 3.154995 0 2.0175499.2419131 2.8031941.616193 3.1549736.3173839.2983186 1.4155467.5796949 3.837793.5796949h.6938825c2.4222475 0 3.5204095-.2813763 3.8377825-.5796949.374269-.3517795.616193-1.1374237.616193-3.1549736 0-2.0175607-.241924-2.8032155-.616193-3.154995-.317373-.2983079-1.415535-.5784364-3.8377825-.5784364z" fill="#fff" opacity=".2"/><path d="m7.56892 1.5997706c-2.4222463 0-3.5204091.2801178-3.837793.5784364-.3742799.3517795-.616193 1.1374344-.616193 3.154995 0 2.01755.2419131 2.8031941.616193 3.1549736.3173839.2983186 1.4155467.5796953 3.837793.5796953h.6938825c2.4222475 0 3.5204095-.2813767 3.8377825-.5796953.374269-.3517795.616193-1.1374236.616193-3.1549736 0-2.0175606-.241924-2.8032155-.616193-3.154995-.317373-.2983079-1.415535-.5784364-3.8377825-.5784364z" fill="#0b508a"/><path d="m7.4121094.00195313c-2.7349357 0-4.1957165.22472682-4.9414063.97460937-.7456791.7498826-.9707031 2.2192835-.9707031 4.96875v.5c0-2.7494665.225024-4.2188674.9707031-4.96875.7456898-.7498828 2.2064706-.97460938 4.9414063-.97460938h1.0722656c2.734958 0 4.195727.22472658 4.941406.97460938.74569.7498826.970703 2.2192835.970703 4.96875v-.5c0-2.7494665-.225013-4.2188674-.970703-4.96875-.745679-.74988255-2.206448-.97460937-4.941406-.97460937z" fill="#fff" opacity=".3"/><path d="m1.5 9.5566406v.5000004c0 2.749467.225024 4.218867.9707031 4.96875.7456898.749882 2.2064706.976562 4.9414063.976562h1.0722656c2.734958 0 4.195727-.22668 4.941406-.976562.74569-.749883.970703-2.219283.970703-4.96875v-.5000004c0 2.7494644-.225013 4.2188674-.970703 4.9687504-.745679.749882-2.206448.976562-4.941406.976562h-1.0722656c-2.7349357 0-4.1957165-.22668-4.9414063-.976562-.7456791-.749883-.9707031-2.219286-.9707031-4.9687504z" opacity=".2"/></svg>

<?xml version="1.0" encoding="UTF-8" standalone="no"?>
<svg
   xmlns:dc="http://purl.org/dc/elements/1.1/"
   xmlns:cc="http://creativecommons.org/ns#"
   xmlns:rdf="http://www.w3.org/1999/02/22-rdf-syntax-ns#"
   xmlns:svg="http://www.w3.org/2000/svg"
   xmlns="http://www.w3.org/2000/svg"
   xmlns:sodipodi="http://sodipodi.sourceforge.net/DTD/sodipodi-0.dtd"
   xmlns:inkscape="http://www.inkscape.org/namespaces/inkscape"
   height="16.001"
   width="16"
   version="1.1"
   id="svg4"
   sodipodi:docname="edit-delete.svg"
   inkscape:version="0.92.4 (5da689c313, 2019-01-14)">
  <metadata
     id="metadata10">
    <rdf:RDF>
      <cc:Work
         rdf:about="">
        <dc:format>image/svg+xml</dc:format>
        <dc:type
           rdf:resource="http://purl.org/dc/dcmitype/StillImage" />
      </cc:Work>
    </rdf:RDF>
  </metadata>
  <defs
     id="defs8">
    <linearGradient
       gradientUnits="userSpaceOnUse"
       gradientTransform="matrix(.36857 0 0 .36857 -.84577 -.84577)"
       y2="3.0816"
       y1="44.98"
       x2="18.379"
       x1="18.379"
       id="linearGradient2484">
      <stop
         offset="0"
         style="stop-color:#791235"
         id="stop2492" />
      <stop
         offset="1"
         style="stop-color:#dd3b27"
         id="stop2494" />
    </linearGradient>
    <radialGradient
       gradientUnits="userSpaceOnUse"
       gradientTransform="matrix(0 .87966 -1.1611 0 12.633 -21.084)"
       r="20.397"
       cy="3.99"
       cx="23.896"
       id="radialGradient2482">
      <stop
         offset="0"
         style="stop-color:#f8b17e"
         id="stop3244" />
      <stop
         offset=".26238"
         style="stop-color:#e35d4f"
         id="stop3246" />
      <stop
         offset=".66094"
         style="stop-color:#c6262e"
         id="stop3248" />
      <stop
         offset="1"
         style="stop-color:#690b54"
         id="stop3250" />
    </radialGradient>
    <linearGradient
       gradientUnits="userSpaceOnUse"
       gradientTransform="matrix(.74324 0 0 .74322 -38.23 10.609)"
       y2="5.4676"
       y1="-12.489"
       x2="63.397"
       x1="63.397"
       id="linearGradient2479">
      <stop
         offset="0"
         style="stop-color:#fff"
         id="stop4875" />
      <stop
         offset="1"
         style="stop-color:#fff;stop-opacity:0"
         id="stop4877" />
    </linearGradient>
    <linearGradient
       gradientUnits="userSpaceOnUse"
       gradientTransform="matrix(.66608 0 0 .76587 -.5708 -.5708)"
       y2="10.936"
       y1="10.936"
       x2="18.678"
       x1="7.8322"
       id="linearGradient2476">
      <stop
         offset="0"
         style="stop-color:#fff"
         id="stop2434" />
      <stop
         offset="1"
         style="stop-color:#fff;stop-opacity:0"
         id="stop2436" />
    </linearGradient>
  </defs>
  <sodipodi:namedview
     pagecolor="#ffffff"
     bordercolor="#666666"
     borderopacity="1"
     objecttolerance="10"
     gridtolerance="10"
     guidetolerance="10"
     inkscape:pageopacity="0"
     inkscape:pageshadow="2"
     inkscape:window-width="1920"
     inkscape:window-height="1016"
     id="namedview6"
     showgrid="false"
     inkscape:zoom="52.437501"
     inkscape:cx="8.1853197"
     inkscape:cy="7.9774423"
     inkscape:window-x="0"
     inkscape:window-y="27"
     inkscape:window-maximized="1"
     inkscape:current-layer="svg4" />
  <path
     inkscape:connector-curvature="0"
     style="display:inline;opacity:1;fill:#1a7fd4;fill-opacity:1;stroke:none;stroke-width:1.06687152;stroke-linecap:round;stroke-linejoin:round;stroke-miterlimit:4;stroke-dasharray:none;stroke-dashoffset:0;stroke-opacity:0.68372097;enable-background:new"
     d="M 7.4118445,9.9977068e-4 C 4.6769088,9.9977068e-4 3.2161801,0.22730455 2.4704903,0.9771871 1.7248112,1.7270697 1.5,3.1964718 1.5,5.9459383 V 10.05606 c 0,2.749467 0.2248112,4.218869 0.9704903,4.968752 0.7456898,0.749882 2.2064185,0.976187 4.9413542,0.976187 h 1.0727286 c 2.7349579,0 4.1956759,-0.226305 4.9413549,-0.976187 0.74569,-0.749883 0.970501,-2.219285 0.970501,-4.968752 V 5.9459383 c 0,-2.7494665 -0.224811,-4.2188686 -0.970501,-4.9687512 C 12.680249,0.22730455 11.219531,9.9977068e-4 8.4845731,9.9977068e-4 Z"
     id="path3479" />
  <path
     inkscape:connector-curvature="0"
     id="path3858"
     d="m 7.2747195,11.26441 -0.2600499,0.446752 0.7401421,0.426749 0.500096,-0.873501 z m 1.1068792,0 -0.373405,0.646791 0.240046,0.406744 -0.1800345,0.106698 0.873501,0.240036 0.2333783,-0.880169 -0.1867027,0.106687 -0.366737,-0.626787 z m -1.1068792,0.840172 -0.873501,0.240035 0.1867025,0.106687 -0.3200614,0.540104 0.1733666,0.300058 H 7.088017 l 0.2400461,-0.413413 0.1800346,0.106687 z m 2.140411,0.526757 -0.7401422,0.426748 0.4534202,0.806822 0.06668,-0.113355 0.153362,-0.273386 0.04662,-0.08001 0.233378,-0.406745 z m -1.2535741,0.553439 -0.6401228,0.640123 0.6401228,0.640123 V 14.251661 H 8.9083665 L 9.0750655,13.964928 8.7483357,13.398153 H 8.1615564 Z m -1.6603187,0.213375 0.059958,0.106697 0.2000384,0.353391 0.2267102,0.39342 h 0.3200614 v -0.853508 z"
     style="display:inline;fill:#ffffff;fill-opacity:1;stroke:none;stroke-width:1.06687152;enable-background:new"
     sodipodi:nodetypes="ccccccccccccccccccccccccccccccccccccccccccccccc" />
  <path
     id="path3856"
     d="m 7.56892,2.6666421 c -2.4222463,0 -3.5204091,0.2801178 -3.837793,0.5784364 -0.3742799,0.3517795 -0.616193,1.1374343 -0.616193,3.154995 0,2.0175499 0.2419131,2.8031941 0.616193,3.1549736 0.3173839,0.2983186 1.4155467,0.5796949 3.837793,0.5796949 h 0.6938825 c 2.4222475,0 3.5204095,-0.2813763 3.8377825,-0.5796949 0.374269,-0.3517795 0.616193,-1.1374237 0.616193,-3.1549736 0,-2.0175607 -0.241924,-2.8032155 -0.616193,-3.154995 C 11.783212,2.9467706 10.68505,2.6666421 8.2628025,2.6666421 Z"
     style="color:#000000;font-style:normal;font-variant:normal;font-weight:normal;font-stretch:normal;font-size:medium;line-height:normal;font-family:sans-serif;font-variant-ligatures:normal;font-variant-position:normal;font-variant-caps:normal;font-variant-numeric:normal;font-variant-alternates:normal;font-feature-settings:normal;text-indent:0;text-align:start;text-decoration:none;text-decoration-line:none;text-decoration-style:solid;text-decoration-color:#000000;letter-spacing:normal;word-spacing:normal;text-transform:none;writing-mode:lr-tb;direction:ltr;text-orientation:mixed;dominant-baseline:auto;baseline-shift:baseline;text-anchor:start;white-space:normal;shape-padding:0;clip-rule:nonzero;display:inline;overflow:visible;visibility:visible;opacity:0.2;isolation:auto;mix-blend-mode:normal;color-interpolation:sRGB;color-interpolation-filters:linearRGB;solid-color:#000000;solid-opacity:1;vector-effect:none;fill:#ffffff;fill-opacity:1;fill-rule:nonzero;stroke:none;stroke-width:17.06994438;stroke-linecap:round;stroke-linejoin:round;stroke-miterlimit:4;stroke-dasharray:none;stroke-dashoffset:0;stroke-opacity:1;color-rendering:auto;image-rendering:auto;shape-rendering:auto;text-rendering:auto;enable-background:new"
     inkscape:connector-curvature="0" />
  <path
     inkscape:connector-curvature="0"
     style="color:#000000;font-style:normal;font-variant:normal;font-weight:normal;font-stretch:normal;font-size:medium;line-height:normal;font-family:sans-serif;font-variant-ligatures:normal;font-variant-position:normal;font-variant-caps:normal;font-variant-numeric:normal;font-variant-alternates:normal;font-feature-settings:normal;text-indent:0;text-align:start;text-decoration:none;text-decoration-line:none;text-decoration-style:solid;text-decoration-color:#000000;letter-spacing:normal;word-spacing:normal;text-transform:none;writing-mode:lr-tb;direction:ltr;text-orientation:mixed;dominant-baseline:auto;baseline-shift:baseline;text-anchor:start;white-space:normal;shape-padding:0;clip-rule:nonzero;display:inline;overflow:visible;visibility:visible;opacity:1;isolation:auto;mix-blend-mode:normal;color-interpolation:sRGB;color-interpolation-filters:linearRGB;solid-color:#000000;solid-opacity:1;vector-effect:none;fill:#0b508a;fill-opacity:1;fill-rule:nonzero;stroke:none;stroke-width:17.06994438;stroke-linecap:round;stroke-linejoin:round;stroke-miterlimit:4;stroke-dasharray:none;stroke-dashoffset:0;stroke-opacity:1;color-rendering:auto;image-rendering:auto;shape-rendering:auto;text-rendering:auto;enable-background:new"
     d="m 7.56892,1.5997706 c -2.4222463,0 -3.5204091,0.2801178 -3.837793,0.5784364 -0.3742799,0.3517795 -0.616193,1.1374344 -0.616193,3.154995 0,2.01755 0.2419131,2.8031941 0.616193,3.1549736 0.3173839,0.2983186 1.4155467,0.5796953 3.837793,0.5796953 h 0.6938825 c 2.4222475,0 3.5204095,-0.2813767 3.8377825,-0.5796953 0.374269,-0.3517795 0.616193,-1.1374236 0.616193,-3.1549736 0,-2.0175606 -0.241924,-2.8032155 -0.616193,-3.154995 C 11.783212,1.8798991 10.68505,1.5997706 8.2628025,1.5997706 Z"
     id="path3481" />
  <path
     style="display:inline;opacity:0.3;fill:#ffffff;fill-opacity:1;stroke:none;stroke-width:1.06687152;stroke-linecap:round;stroke-linejoin:round;stroke-miterlimit:4;stroke-dasharray:none;stroke-dashoffset:0;stroke-opacity:0.68372097;enable-background:new"
     d="M 7.4121094 0.001953125 C 4.6771737 0.001953125 3.2163929 0.22667995 2.4707031 0.9765625 C 1.725024 1.7264451 1.5 3.195846 1.5 5.9453125 L 1.5 6.4453125 C 1.5 3.695846 1.725024 2.2264451 2.4707031 1.4765625 C 3.2163929 0.7266797 4.6771737 0.50195312 7.4121094 0.50195312 L 8.484375 0.50195312 C 11.219333 0.50195312 12.680102 0.7266797 13.425781 1.4765625 C 14.171471 2.2264451 14.396484 3.695846 14.396484 6.4453125 L 14.396484 5.9453125 C 14.396484 3.195846 14.171471 1.7264451 13.425781 0.9765625 C 12.680102 0.22667995 11.219333 0.001953125 8.484375 0.001953125 L 7.4121094 0.001953125 z "
     id="path855" />
  <path
     style="display:inline;opacity:0.2;fill:#000000;fill-opacity:1;stroke:none;stroke-width:1.06687152;stroke-linecap:round;stroke-linejoin:round;stroke-miterlimit:4;stroke-dasharray:none;stroke-dashoffset:0;stroke-opacity:0.68372097;enable-background:new"
     d="M 1.5 9.5566406 L 1.5 10.056641 C 1.5 12.806108 1.725024 14.275508 2.4707031 15.025391 C 3.2163929 15.775273 4.6771737 16.001953 7.4121094 16.001953 L 8.484375 16.001953 C 11.219333 16.001953 12.680102 15.775273 13.425781 15.025391 C 14.171471 14.275508 14.396484 12.806108 14.396484 10.056641 L 14.396484 9.5566406 C 14.396484 12.306105 14.171471 13.775508 13.425781 14.525391 C 12.680102 15.275273 11.219333 15.501953 8.484375 15.501953 L 7.4121094 15.501953 C 4.6771737 15.501953 3.2163929 15.275273 2.4707031 14.525391 C 1.725024 13.775508 1.5 12.306105 1.5 9.5566406 z "
     id="path860" />
</svg>
